src/oreo_purple_cursors/help.svg

<svg xmlns="http://www.w3.org/2000/svg" id="svg2" width="32" height="32" version="1.1">
 <defs id="defs6">
  <filter id="filter1153" style="color-interpolation-filters:sRGB" width="1.226" height="1.167" x="-.11" y="-.08">
   <feGaussianBlur id="feGaussianBlur1155" stdDeviation=".94"/>
  </filter>
 </defs>
 <path id="path1103" style="opacity:0.3;fill:#000000;fill-opacity:1;stroke-width:0.61431861;filter:url(#filter1153)" d="M 9.2089844,2.5058594 C 6.7175742,2.3374628 6.1004314,5.5847506 6.0175781,13.791016 L 6,19.5 c 0,5.522847 4.477153,10 10,10 5.522847,0 10,-4.477153 10,-10 0.0027,-0.234951 -0.01749,-0.487135 -0.02539,-0.707031 l -0.002,-0.01172 C 25.701658,14.252327 22.219888,10.213245 13.892578,4.7089844 11.860448,3.3657697 10.341444,2.5824033 9.2089844,2.5058594 Z"/>
 <path id="path834" style="fill:#7E57C2;fill-opacity:1;stroke-width:0.61431861" d="M 9.2089844,1.0058594 C 6.7175742,0.83746275 6.1004314,4.0847506 6.0175781,12.291016 L 6,18 c 0,5.522847 4.477153,10 10,10 5.522847,0 10,-4.477153 10,-10 0.0027,-0.234951 -0.01749,-0.487135 -0.02539,-0.707031 l -0.002,-0.01172 C 25.701658,12.752327 22.219888,8.7132453 13.892578,3.2089844 11.860448,1.8657697 10.341444,1.0824033 9.2089844,1.0058594 Z"/>
 <path id="path818" style="opacity:1;fill:#ffffff;fill-opacity:1;stroke:none;stroke-width:4.21345711;stroke-linecap:round;stroke-linejoin:round;stroke-miterlimit:4;stroke-dasharray:none;stroke-opacity:1" d="M 16 13 A 4 4 0 0 0 12 17 L 14 17 A 2 2 0 0 1 16 15 A 2 2 0 0 1 18 17 A 2 2 0 0 1 16 19 L 15 19 L 15 22 L 17 22 L 17 20.867188 A 4 4 0 0 0 20 17 A 4 4 0 0 0 16 13 z M 15 23 L 15 24 L 17 24 L 17 23 L 15 23 z"/>
</svg>

<svg xmlns="http://www.w3.org/2000/svg" viewBox="0 0 32 32"><defs><filter id="a" width="1.226" height="1.167" x="-.11" y="-.08" color-interpolation-filters="sRGB"><feGaussianBlur stdDeviation=".94"/></filter></defs><path d="M9.209 2.5059C6.7176 2.3375 6.1004 5.5848 6.0176 13.791L6 19.5c0 5.5228 4.4772 10 10 10s10-4.4772 10-10c.0027-.235-.0175-.4871-.0254-.707l-.002-.0118c-.271-4.5289-3.7527-8.568-12.08-14.0722-2.0322-1.3432-3.5512-2.1266-4.6836-2.2031z" opacity=".3" filter="url(#a)"/><path d="M9.209 1.0059C6.7176.8375 6.1004 4.0848 6.0176 12.291L6 18c0 5.5228 4.4772 10 10 10s10-4.4772 10-10c.0027-.235-.0175-.4871-.0254-.707l-.002-.0118c-.271-4.5289-3.7527-8.568-12.08-14.0722-2.0322-1.3432-3.5512-2.1266-4.6836-2.2031z" fill="#7E57C2"/><path d="M16 13a4 4 0 00-4 4h2a2 2 0 012-2 2 2 0 012 2 2 2 0 01-2 2h-1v3h2v-1.1328A4 4 0 0020 17a4 4 0 00-4-4zm-1 10v1h2v-1h-2z" fill="#fff"/></svg>
